svg/media/video_camera_2_line.svg

<svg xmlns="http://www.w3.org/2000/svg" width="24" height="24" viewBox="0 0 24 24"><g fill="none" fill-rule="evenodd"><path d="M24,0 L24,24 L0,24 L0,0 L24,0 Z M12.5935,23.2578 L12.5819,23.2595 L12.5109,23.295 L12.4919,23.2987 L12.4767,23.295 L12.4057,23.2595 C12.3958,23.2564 12.387,23.259 12.3821,23.2649 L12.378,23.2758 L12.3609,23.7031 L12.3659,23.7235 L12.3769,23.7357 L12.4805,23.8097 L12.4953,23.8136 L12.5071,23.8097 L12.6107,23.7357 L12.6233,23.7197 L12.6267,23.7031 L12.6096,23.2758 C12.6076,23.2657 12.601,23.2593 12.5935,23.2578 Z M12.8584,23.1453 L12.8445,23.1473 L12.6598,23.2397 L12.6499,23.2499 L12.6472,23.2611 L12.6651,23.6906 L12.6699,23.7034 L12.6784,23.7105 L12.8793,23.8032 C12.8914,23.8069 12.9022,23.803 12.9078,23.7952 L12.9118,23.7812 L12.8777,23.1665 C12.8753,23.1546 12.8674,23.147 12.8584,23.1453 Z M12.143,23.1473 C12.1332,23.1424 12.1222,23.1453 12.1156,23.1526 L12.1099,23.1665 L12.0758,23.7812 C12.0751,23.7927 12.0828,23.8019 12.0926,23.8046 L12.1083,23.8032 L12.3092,23.7105 L12.3186,23.7024 L12.3225,23.6906 L12.3404,23.2611 L12.3372,23.2485 L12.3278,23.2397 L12.143,23.1473 Z"/><path fill="#09244B" d="M5,6 C5,5.44772 5.44772,5 6,5 L10.9296,5 C11.9327,5 12.8694,5.5013 13.4258,6.3359 L14.5352,8 L15,8 C16.6569,8 18,9.34315 18,11 L18,11.2092 L19.7133,10.1538 C20.7126,9.53817 22,10.2571 22,11.4309 L22,16.5686 C22,17.7424 20.7126,18.4614 19.7133,17.8457 L18,16.7903 L18,17 C18,18.6569 16.6569,20 15,20 L5,20 C3.34315,20 2,18.6569 2,17 L2,11 C2,9.34315 3.34315,8 5,8 L12.1315,8 L11.7617,7.4453 C11.5762,7.1671 11.264,7 10.9296,7 L6,7 C5.44772,7 5,6.55228 5,6 Z M13.9863,10 L5,10 C4.44772,10 4,10.4477 4,11 L4,17 C4,17.5523 4.44772,18 5,18 L15,18 C15.5523,18 16,17.5523 16,17 L16,11 C16,10.4477 15.5523,10 15,10 L14.0155,10 C14.0058,10.0001 13.996,10.0001 13.9863,10 Z M18,14.4413 L20,15.6733 L20,12.3262 L18,13.5583 L18,14.4413 Z"/></g></svg>

<svg xmlns="http://www.w3.org/2000/svg" width="24" height="24"><g fill="none" fill-rule="evenodd"><path d="M24 0v24H0V0zM12.594 23.258l-.012.002-.071.035-.02.004-.014-.004-.071-.036c-.01-.003-.019 0-.024.006l-.004.01-.017.428.005.02.01.013.104.074.015.004.012-.004.104-.074.012-.016.004-.017-.017-.427c-.002-.01-.009-.017-.016-.018m.264-.113-.014.002-.184.093-.01.01-.003.011.018.43.005.012.008.008.201.092c.012.004.023 0 .029-.008l.004-.014-.034-.614c-.003-.012-.01-.02-.02-.022m-.715.002a.023.023 0 0 0-.027.006l-.006.014-.034.614c0 .012.007.02.017.024l.015-.002.201-.093.01-.008.003-.011.018-.43-.003-.012-.01-.01z"/><path fill="#09244B" d="M5 6a1 1 0 0 1 1-1h4.93a3 3 0 0 1 2.496 1.336L14.536 8H15a3 3 0 0 1 3 3v.21l1.713-1.056A1.5 1.5 0 0 1 22 11.43v5.138a1.5 1.5 0 0 1-2.287 1.277L18 16.79V17a3 3 0 0 1-3 3H5a3 3 0 0 1-3-3v-6a3 3 0 0 1 3-3h7.132l-.37-.555A1 1 0 0 0 10.93 7H6a1 1 0 0 1-1-1m8.986 4H5a1 1 0 0 0-1 1v6a1 1 0 0 0 1 1h10a1 1 0 0 0 1-1v-6a1 1 0 0 0-1-1h-.985zM18 14.441l2 1.232v-3.347l-2 1.232z"/></g></svg>
